X: 177
T: No_37_Cow_Creek_Hunting_Dance_Song_(d).krn
N: Derived from No_37_Cow_Creek_Hunting_Dance_Song_(d).krn
%%abc-version 2.0
%%abcx-abcm2ps-target-version 5.9.1 (29 Sep 2008)
%%abc-creator hum2abc beta
%%abcx-conversion-date 2019/03/15 08:38:45
%%humdrum-veritas 3276063245
%%humdrum-veritas-data 3040803033
%%linebreak <none>
%%barnumbers 0
L: 1/8
M: 3/4
K: F clef=bass
[K:clef=bass][M:3/4](3DDD D3/C/ C3/D/ | 
(3DC-CC4 ||  
[M:2/4]C2G, z/ C/ | 
C3/A,/G,2 | 
F,4 | 
F,2D,3/G,/ | 
G,3/F,/D,2 | 
C,2C,3/C,/ ||  
[M:3/4]C,2C, zG,2 ||  
[M:2/4]B,4 | 
B,2G,3/C/ | 
C3/B,/G,2 | 
F,4 | 
F,2D,3/G,/ | 
G,3/F,/D,2 | 
C,4 | 
C,2C,2 | 
C4- | 
(CG,)C2



